X:1
T:Title
%%score { ( 1 3 ) | ( 2 4 ) }
L:1/8
Q:1/4=100
M:4/4
K:Bb
V:1 treble nm="Grand Piano"
V:3 treble 
V:2 bass 
V:4 bass 
V:1
 [DF]2 [EG]>[EA] B2 F2 | c2 AF [DFB]4 | [B,EG]2 [CFA]>[B,FB] [Fc][Fc] [Fd]2 | %3
w: D.~B.~Towner * * * *|||
 [Fc][FA][=EB][EG] z2 E,2 | F2 [EG]>[EA] [DB]2 F2 | c2 AF d4 | [Ge]2 [G=e]>[Ge] [Ff][Fd][FB][Fc] | %7
w: ||||
 [Fd]2 [EFc]2 [DFB]4 | d2 d>d [^Fd]2 [FA]2 | [^Fd]2 [Fc]>[Fc] [GB]4 | %10
w: |||
 [Ac]2 [Gc]>[Gc] [=Ec]2 [EG]2 | [=EB]2 [EA]>[EG] z2 _E2 | F2 G>A B2 F2 | c2 AF d4 | %14
w: ||||
 [Ge]2 [G=e]>[Ge] [Ff][Fd][FB][Fc] | .[Fd]2 .c>F [DFB]4 |] %16
w: ||
V:2
 [B,,B,]2 [B,,B,]>[B,,B,] [F,B,D]2 [B,D]2 | [F,A,F]2 [F,CF][F,E] B,,4 | %2
 E,2 E,>D, [C,A,][C,A,] [B,,B,]2 | z4 A,4 | [D,B,]2 [C,F,]>[C,F,] [B,,F,]2 [B,D]2 | %5
 [F,A,F]2 [F,CF][A,C] [B,F]4 | [E,B,]2 [C,B,]>[C,B,] [D,B,][D,B,][D,B,][E,B,] | [F,B,]2 F,2 B,,4 | %8
 [B,F]2 [A,C^F]>[G,B,G][K:bass] [D,A,]2 [D,D]2 | [D,A,]2 [D,A,]>[D,A,] [G,B,]4 | %10
 [F,F]2 [=E,C]>[D,C] [C,C]2 [C,C]2 | [C,C]2 [C,C]>[C,B,] [F,A,]4 | %12
 [B,D]2 [B,E]>[B,E] [B,D]2 [B,D]2 | [F,A,F]2 [F,CF][A,C] [B,F]4 | %14
 [E,B,]2 [C,B,]>[C,B,] [D,B,][D,B,][D,B,][E,B,] | [F,B,]2 [EF]>E B,,4 |] %16
V:3
 x8 | x8 | x8 | z4 F4 | x8 | x8 | x8 | x8 | x8 | x8 | x8 | z4 F4 | x8 | x8 | x8 | x8 |] %16
V:4
 x8 | x8 | x8 | [C,A,][C,C][C,C][C,B,] F,2 z2 | x8 | x8 | x8 | x8 | x4[K:bass] x4 | x8 | x8 | x8 | %12
 x8 | x8 | x8 | z2 F,2 z4 |] %16

